X:1
T:Title
%%score { ( 1 3 ) | ( 2 4 ) }
L:1/8
Q:1/4=100
M:4/4
K:Ab
V:1 treble nm="Grand Piano"
V:3 treble 
V:2 bass 
V:4 bass 
V:1
 [CE]2 [CF]>[CG] [CA]2 [Ec]2 | c4 B2 z2 | d2 c>B F2 G2 | [CA]6 z2 | [CE]2 [CF]>[CG] [CA]2 c2 | %5
w: Geo.~C.~Stebbins * * * *|||||
 e4 B2 z2 | c2 B>G A2 [=DF]2 | E6 z2 | d2 c>B F2 G2 | [CA]4 [CE]2 z2 | c2 B>A [DF]2 [DB]2 | B6 z2 | %12
w: |||||||
 c2 c>c d2 B2 | e4[K:bass][K:treble] z4 | [CEA]2 [DEB]>[Ec] [DFB]2 [DGB]2 | [CA]6 z2 | %16
w: ||||
 e2 e>e e2 e2 | e4 [GB]2 z2 | [Fd]2 [Fd]>[Fd] [Ec]2 [DB]2 | [CA]6 z2 | c2 c>c d2 B2 | %21
w: |||||
 e4[K:bass][K:treble] z4 | [CEA]2 [DEB]>[Ec] [DFB]2 [DGB]2 | [CA]6 z2 |] %24
w: |||
V:2
 [A,,A,]2 [A,,A,]>[A,,A,] [A,,E,]2 [A,,A,]2 | [E,A,E]4 [E,G,E]2 z2 | %2
 [E,G,F]2 [E,G,E]>[E,G,D] [E,A,D]2 [E,B,D]2 | [A,,A,]6 z2 | %4
 [A,,A,]2 [A,,A,]>[A,,A,] [A,,A,]2 [A,E]2 | [G,B,E]4 [E,G,E]2 z2 | %6
 [A,E]2 [G,B,E]>[E,B,E] [F,B,=D]2 [B,,A,]2 | [E,G,]6 z2 | %8
 [E,G,F]2 [E,G,E]>[E,G,D] [E,A,D]2 [E,B,D]2 | [A,,A,]4 [A,,A,]2 z2 | %10
 [F,A,C]2 [F,G,C]>[F,C] [B,,A,]2 [B,,A,]2 | [E,G,E]6 z2 | [A,E]2 [A,EA]>[A,EA] [B,EG]2 [DEG]2 | %13
 [EA]4[K:bass] [D,D]2 z2 | E,2 E,>E, E,2 E,2 | A,,6 z2 | [A,CA]2 [A,CA]>[A,CA] [=A,C_G]2 [A,CG]2 | %17
 [B,DG]4[K:bass] [E,D]2 z2 | [E,G,]2 [E,G,]>[E,G,] [E,A,]2 [E,G,]2 | [A,,A,]6 z2 | %20
 [A,E]2 [A,EA]>[A,EA] [B,EG]2 [DEG]2 | [EA]4[K:bass] [D,D]2 z2 | E,2 E,>E, E,2 E,2 | A,,6 z2 |] %24
V:3
 x8 | x8 | x8 | x8 | x8 | x8 | x8 | x8 | x8 | x8 | x8 | x8 | x8 | %13
 z2[K:bass] C,2[K:treble] [Af]2 z2 | x8 | x8 | x8 | x8 | x8 | x8 | x8 | %21
 z2[K:bass] C,2[K:treble] [Af]2 z2 | x8 | x8 |] %24
V:4
 x8 | x8 | x8 | x8 | x8 | x8 | x8 | x8 | x8 | x8 | x8 | x8 | x8 | C2 z2[K:bass] z4 | x8 | x8 | x8 | %17
 x4[K:bass] x4 | x8 | x8 | x8 | C2 z2[K:bass] z4 | x8 | x8 |] %24

